X: 943
T: Sugar in the Gourd
C:as played by Lowe Stokes (1898-1993)
B: jims roots
M:C|
L:1/8
R: Reel
Q: 1/4=100
K:A
V:1 
%Q:"Quick"
%D: http://www.slippery-hill.com/recording/sugar-gourd-4
AB | "A"c2 ee efee|c2 ef e2e2 | "D"fefg afed | "A"c[ee][ee]e y[e2e2]fg |
agae fecd | efec "E"B2AB | "A"cBcA "E"BAFA | EEBG "A"A2:|
|:AB | "A"cBA2 [F2A2]EE | EFAA "E"B3B | "A"cBAA F2EE | "D"EA2B "A"A2AB |
          cBA[FA] [F2A2]EE | EA2A "E"B3B | "A"cBAA F2EE | "E"FA2B "A"A2 ||
% abcbook-tune_id 6298c297067d1700c58576aa


% abcbook-boost 0
% abcbook-tablature 
% abcbook-transpose 
% abcbook-lastupdated 1654178455660
% abcbook-soundfonts 
% abcbook-repeats 1


